packages/sources/assets/src/assets/flag-kg.svg

<svg width="28" height="20" viewBox="0 0 28 20" fill="none" xmlns="http://www.w3.org/2000/svg">
<rect width="28" height="20" rx="2" fill="white"/>
<mask id="mask0_503_2912" style="mask-type:alpha" maskUnits="userSpaceOnUse" x="0" y="0" width="28" height="20">
<rect width="28" height="20" rx="2" fill="white"/>
</mask>
<g mask="url(#mask0_503_2912)">
<rect width="28" height="20" fill="#F22A46"/>
<path fill-rule="evenodd" clip-rule="evenodd" d="M14 13.3333C15.841 13.3333 17.3334 11.8409 17.3334 9.99999C17.3334 8.15904 15.841 6.66666 14 6.66666C12.1591 6.66666 10.6667 8.15904 10.6667 9.99999C10.6667 11.8409 12.1591 13.3333 14 13.3333Z" fill="#FFF04D"/>
<path fill-rule="evenodd" clip-rule="evenodd" d="M12.3682 17.1495L14 14.7136L15.6318 17.1495L16.0452 14.2468L18.5723 15.7334L17.6853 12.9389L20.6071 13.1818L18.5955 11.0489L21.3334 10L18.5955 8.95112L20.6071 6.81818L17.6853 7.06111L18.5723 4.26657L16.0452 5.75318L15.6318 2.85052L14 5.28638L12.3682 2.85052L11.9549 5.75318L9.42776 4.26657L10.3148 7.06111L7.39292 6.81818L9.40459 8.95112L6.66669 10L9.40459 11.0489L7.39292 13.1818L10.3148 12.9389L9.42776 15.7334L11.9549 14.2468L12.3682 17.1495ZM18.6667 10C18.6667 12.5773 16.5773 14.6667 14 14.6667C11.4227 14.6667 9.33335 12.5773 9.33335 10C9.33335 7.42267 11.4227 5.33333 14 5.33333C16.5773 5.33333 18.6667 7.42267 18.6667 10Z" fill="#FFF04D"/>
</g>
</svg>

<svg width="28" height="20" fill="none" xmlns="http://www.w3.org/2000/svg"><rect width="28" height="20" rx="2" fill="#fff"/><mask id="a" style="mask-type:alpha" maskUnits="userSpaceOnUse" x="0" y="0" width="28" height="20"><rect width="28" height="20" rx="2" fill="#fff"/></mask><g mask="url(#a)"><path fill="#F22A46" d="M0 0h28v20H0z"/><path fill-rule="evenodd" clip-rule="evenodd" d="M14 13.333a3.333 3.333 0 1 0 0-6.666 3.333 3.333 0 0 0 0 6.666Z" fill="#FFF04D"/><path fill-rule="evenodd" clip-rule="evenodd" d="M12.368 17.15 14 14.713l1.632 2.435.413-2.902 2.527 1.486-.887-2.794 2.922.243-2.011-2.133L21.333 10l-2.737-1.049 2.011-2.133-2.922.243.887-2.794-2.527 1.486-.413-2.902L14 5.286l-1.632-2.435-.413 2.902-2.527-1.486.887 2.794-2.922-.243 2.012 2.133L6.667 10l2.738 1.049-2.012 2.133 2.922-.243-.887 2.794 2.527-1.486.413 2.902ZM18.667 10a4.667 4.667 0 1 1-9.334 0 4.667 4.667 0 0 1 9.334 0Z" fill="#FFF04D"/></g></svg>
